svgs/duotone/blanket.svg

<svg xmlns="http://www.w3.org/2000/svg" viewBox="0 0 448 512"><!--! Font Awesome Pro 6.3.0 by @fontawesome - https://fontawesome.com License - https://fontawesome.com/license (Commercial License) Copyright 2023 Fonticons, Inc. --><defs><style>.fa-secondary{opacity:.4}</style></defs><path class="fa-primary" d="M448 432v32c0 8.75-7.25 16-16 16H128c-70.75 0-128-57.25-128-128c0-70.58 57.42-128 128-128h240c43.17 0 78.24 34.44 79.72 77.26l-.0977 11.12C443.4 354 405.1 384 363.3 384H128c-17.75 0-32-14.25-32-32s14.25-32 32-32h240c8.75 0 16-7.25 16-16S376.8 288 368 288H128c-35.25 0-64 28.75-64 64s28.75 64 64 64h304C440.8 416 448 423.3 448 432z"/><path class="fa-secondary" d="M448 128c0 0-.0918 133.7-.2773 173.3C446.2 258.4 411.2 224 368 224H128c-70.58 0-128 57.42-128 128V128c0-52.88 43.13-96 96-96h256C404.9 32 448 75.13 448 128z"/></svg>

<svg xmlns="http://www.w3.org/2000/svg" viewBox="0 0 448 512"><!--! Font Awesome Pro 6.4.0 by @fontawesome - https://fontawesome.com License - https://fontawesome.com/license (Commercial License) Copyright 2023 Fonticons, Inc. --><defs><style>.fa-secondary{opacity:.4}</style></defs><path class="fa-primary" d="M128 288c-35.3 0-64 28.7-64 64s28.7 64 64 64H416c17.7 0 32 14.3 32 32s-14.3 32-32 32H128C57.3 480 0 422.7 0 352s57.3-128 128-128H368c44.2 0 80 35.8 80 80s-35.8 80-80 80H128c-17.7 0-32-14.3-32-32s14.3-32 32-32H368c8.8 0 16-7.2 16-16s-7.2-16-16-16H128z"/><path class="fa-secondary" d="M0 352V128C0 75 43 32 96 32H352c53 0 96 43 96 96V304c0-44.2-35.8-80-80-80H128C57.3 224 0 281.3 0 352z"/></svg>
